X:1
T:Polska 69
C:Carl Gustav Åstrand
R:Polska
O:Horn, Östergötland
Z:Jörgen Olsson
M:3/4
L:1/8
K:D
V1
|:"D"d>e fd A2|"D"FF/G/"A" EE/F/ "D"D2|"D"D>D FF AA|"Bm"dc/d/ "A"ec "A7" A2|
"D"d>e fd A2|"D"FF/G/"A" EE/F/ "D"D2|"D"D>D FF AA|"Bm"dc/d/ "A7"e2 "D" d2:|
|:"D"DF/E/ DF/E/ DE/F/|"G"GB/A/ GB/A/ GB|"A"A>c de fe|"D/A"dc/d/ "A7"ed/c/ "D"dA|
"D"DF/E/ DF/E/ DE/F/|"G"GB/A/ GB/A/ GB|"A"A>c de fe|"D/A"dc/d/ "A7"ee/c/ "D" d2:|]

